X:1
T:O capo insanguinato
T:J.S.Bach (1729) 
T:Ernesto Teodoro Moneta-Caglio
T:Scritto con MuseScore, un software libero e gratuito: http://musescore.org/it
T:Scritto con MuseScore, un software libero e gratuito: http://musescore.org/it
Z:Scritto con MuseScore, un software libero e gratuito: http://musescore.org/it
%%score 1 2 3 4
L:1/8
Q:1/4=56
M:4/4
K:D
V:1 treble nm="Soprano" snm="S."
V:2 treble nm="Alto" snm="A."
V:3 bass nm="Tenor" snm="T."
V:4 bass nm="Bass" snm="B."
V:1
"^Grave"!mp! F2 | B2 A2 G2 F2 | E4 !breath!F2 c2 |!<(! d2 d2 (cB)!f! c2!<)! |!>(! B6 F2!>)! | %5
w: O|ca\- po~͜~in\- san\- gui\-|na\- to tra\-|fit\- to dal * do\-|lor; di|
 B2 A2 G2 F2 | E4 !breath!F2 c2 |!<(! d2!f! d2 (cB) c2!<)! | B6"^cresc." ^d2 | (cB) A2 B2 c2 | %10
w: spi\- ne͜~in\- co\- ro\-|na\- to, of\-|fe\- so nel\- * l'o\-|nor. Tu|do\- * ni͜~a noi l'e\-|
 d4 !breath!d2 A2 | B2 A2 G2 G2 |!>(! F6 =d2!>)! | c<d e2 d2!<(! c2!<)! | B4 c2 F2 | %15
w: sem\- pio d'im\-|men\- sa ca\- ri\-|tà; l'af\-|fron\- * to tri\- ste~͜ed|em\- pio più|
 G2!>(! F2 E2!mp! A2!>)! | !fermata!F6!D.C.! |] %17
w: ca\- ro~͜al cuor ti|fa.|
V:2
 D2 | D2 D2 (DE) (ED) | D2 C2 !breath!D2 E2 | (DE) F2 F3 E | D6!mp! D2 | D2 D2 (DE) (ED) | %6
w: ||||||
w: O|ca\- po~͜in\- san\- * gui\- *|na\- * to tra\-|fit\- * to dal do\-|lor; di|spi\- ne~͜in\- co\- * ro\- *|
 (D2 C2) !breath!D2 E2 | DE F2 F3 E | D6 F2 | (EG) (FE) D2 G2 | (G2 F)E !breath!F2 F2 | %11
w: |||||
w: na\- , to, of\-|fe\- * so nel\- l'o\-|nor. Tu|do\- * ni~͜a * noi l'e\-|sem\- * * pio d'im\-|
 G2 F2 F2 E2 | ^D6 E2 | E2 E2 F^G A2 | (A2 ^G2) A2 DC | (B,C) D2 (DA,) C2 | !fermata!D6 |] %17
w: ||||||
w: men\- sa ca\- ri\-|tà; l'af\-|fron\- to tri\- * ste~͜ed|em\- * pio più *|ca\- * ro~͜al cuor * ti|fa.|
V:3
!mp! A,2 | G,2 A,2 (B,A,) A,2 | (B,2 A,2) !breath!A,2 ^A,2 | B,2 B,2 B,2 ^A,2 | B,6 ^A,2 | %5
w: O|ca\- po͜͜~in san\- * gui\-|na\- * to tra\-|fit\- to dal do\-|lor; di|
 G,2 A,2 (B,A,) A,2 | (B,2 A,2) !breath!A,2 ^A,2 | B,2 B,2 B,2 ^A,2 | B,6 (B,A,) | %9
w: spi\- ne͜~in\- co\- * ro\-|na\- to, of\- *|fe\- so nel\- l'o\-|nor. Tu *|
 (G,B,) (DC) (B,A,) (G,A,) | (B,2 A,)G, !breath!A,2 D2 | D2 =C2 B,2 A,2 | B,6 ^A,2 | %13
w: do\- * nia * noi * l'e\- *|sem\- * * pio d'im\-|men\- sa ca\- ri\-|tà; l'af\-|
 A,2 B,2 A,B, CA, | (F2 E2) E2 A,2 | G,2 A,2 A,2 A,2 | !fermata!A,6 |] %17
w: fron\- to tri\- * ste~͜ed *|em\- * pio più|ca\- ro~͜al cuor ti|fa.|
V:4
 D,2 | G,2 F,2 (B,,C,) D,2 | (G,,2 A,,2) !breath!D,2 C,2 | (B,,(C,) (D,)E,) F,2 F,,2 | %4
w: O|ca\- po~͜~in\- san\- * gui\-|na\- * to tra\-|fit\- * to * dal do\-|
!mp! B,,6 D,2 | G,2 F,2 B,,C, D,2 | (G,,2 A,,2) !breath!D,2 C,2 | (B,,C,) (D,E,) F,2 F,,2 | %8
w: lor; di|spi\- ne~͜in\- co\- * ro\-|na\- to, of\- *|fe\- * so * nel\- l'o\-|
 B,,6 B,,2 | E,2 F,2 (G,F,) E,2 | D,4 !breath!D,2 D,2 | (G,F,) (E,^D,) (E,F,) (G,A,) | B,6 ^G,2 | %13
w: nor. Tu|do\- nia noi * l'e\-|sem\- pio d'im\-|men\- * sa * ca\- * ri\- *|tà; l'af\-|
 A,2 ^G,2 F,2 E,2 | (^D,2 E,2) A,,2 =D,2 | E,2 F,G, A,2 A,,2 | !fermata!D,6 |] %17
w: fron\- to tri\- ste~͜ed|em\- * pio più|ca\- ro~͜al * cuor ti|fa.|

